website/public/Images/logos/minio.svg

<svg width="16" height="28" viewBox="0 0 16 28" fill="none" xmlns="http://www.w3.org/2000/svg">
<path d="M11.4706 3.7793C11.4706 3.7793 13.8754 7.35899 14.6833 8.6313C14.6905 8.64076 14.6944 8.65206 14.6944 8.66364C14.6944 8.67523 14.6905 8.68653 14.6833 8.69599C14.672 8.70601 14.6569 8.7116 14.6413 8.7116C14.6256 8.7116 14.6105 8.70601 14.5992 8.69599L10.4526 4.68932L11.4706 3.7793Z" fill="#F05A28"/>
<path d="M4.37732 16.83C5.08128 15.4505 6.03869 14.1942 7.20709 13.1166C7.64676 12.7067 8.11469 12.3235 8.60797 11.9694V14.8029L4.37732 16.83ZM1.92578 19.4479L8.61731 16.2995V23.4934L10.1256 25.3221V15.5836L11.0595 15.1523C11.6922 14.8579 12.2416 14.4308 12.6635 13.9052C13.0855 13.3796 13.3684 12.7701 13.4896 12.1254C13.6107 11.4807 13.5668 10.8187 13.3614 10.1925C13.1559 9.56628 12.7946 8.99318 12.3063 8.51907L8.85079 5.19383C8.71478 5.05706 8.64246 4.87638 8.64945 4.69078C8.65644 4.50519 8.74217 4.32958 8.88814 4.20187C9.03724 4.07467 9.23465 4.00694 9.4375 4.0134C9.64035 4.01986 9.83224 4.09999 9.97149 4.23637L10.4385 4.70216L11.4704 3.78783C10.2517 2.32576 8.7574 2.49397 7.88885 3.2401C7.4656 3.60857 7.21803 4.11716 7.20052 4.65412C7.18301 5.19109 7.39699 5.71251 7.79546 6.10385L11.2696 9.44634C11.5872 9.75894 11.8249 10.1333 11.9652 10.5419C12.1055 10.9505 12.1448 11.383 12.0803 11.8075C12.0158 12.232 11.8491 12.6378 11.5924 12.995C11.3358 13.3521 10.9957 13.6516 10.5972 13.8714L10.1303 14.0956V9.54985C8.05512 10.5358 6.24305 11.9353 4.82497 13.6471C3.4069 15.3588 2.41825 17.3402 1.93046 19.4479" fill="#010000"/>
</svg>

<svg xmlns="http://www.w3.org/2000/svg" width="16" height="28" fill="none" xmlns:v="https://vecta.io/nano"><path d="M11.471 3.779l3.213 4.852c.007.009.011.021.011.032s-.004.023-.011.032-.026.016-.042.016-.031-.006-.042-.016l-4.147-4.007 1.018-.91z" fill="#f05a28"/><path d="M4.377 16.83c.704-1.379 1.661-2.636 2.83-3.713a14.18 14.18 0 0 1 1.401-1.147v2.833L4.377 16.83zm-2.452 2.618l6.692-3.148v7.194l1.508 1.829v-9.738l.934-.431a4.47 4.47 0 0 0 1.604-1.247c.422-.526.705-1.135.826-1.78s.077-1.307-.128-1.933-.567-1.199-1.055-1.673L8.851 5.194c-.136-.137-.208-.317-.201-.503s.093-.361.239-.489a.81.81 0 0 1 .549-.188.8.8 0 0 1 .534.223l.467.466 1.032-.914c-1.219-1.462-2.713-1.294-3.582-.548-.423.368-.671.877-.688 1.414s.196 1.058.595 1.45l3.474 3.342a2.83 2.83 0 0 1 .696 1.096 2.66 2.66 0 0 1 .115 1.266 2.74 2.74 0 0 1-.488 1.188c-.257.357-.597.657-.995.876l-.467.224V9.55c-2.075.986-3.887 2.385-5.305 4.097a14.07 14.07 0 0 0-2.895 5.801" fill="#010000"/></svg>
